X:13030
T:My Darling Asleep.
R:Jig
C:Trad.
O:Ireland
Z:Paul Hardy's Session Tunebook 2015 (see www.paulhardy.net). Creative Commons cc by-nc-sa licenced.
M:6/8
L:1/8
Q:3/8=80
K:D
d/e/|"D"fdd "A7"cAA|"G"BGG "A7"A2G|"D"FAA "Bm"def|"Em"gfg "A7"eag|
"D"fdd "A7"cAA|"G"BGG "A7"A2G|"D"FAA def|"A7"gec "D"d2:|
|:A/G/|"D"FAA "G"Bcd|"D"FAA "G"BAG|"D"FAA "Bm"def|"Em"gfg "A7"eag|
"D"fdd "A7"cAA|"G"BGG "A7"A2G|"D"FAA def|"A7"gec "D"d2:|

